static/images/immudb/features/immutable.svg

<svg id="_x33_0" enable-background="new 0 0 64 64" height="512" viewBox="0 0 64 64" width="512" xmlns="http://www.w3.org/2000/svg"><g><g><g><path d="m12 20v10h-5c-2.76 0-5-2.24-5-5 0-1.38.56-2.63 1.46-3.54.91-.9 2.16-1.46 3.54-1.46z" fill="#e6e9ed"/></g><g><path d="m57 20c2.76 0 5 2.24 5 5 0 1.38-.56 2.63-1.46 3.54-.91.9-2.16 1.46-3.54 1.46h-5v-10z" fill="#e6e9ed"/></g><g><path d="m60.54 28.54c-.91.9-2.16 1.46-3.54 1.46h-50c-2.76 0-5-2.24-5-5v32c0 2.76 2.24 5 5 5h50c2.76 0 5-2.24 5-5v-32c0 1.38-.56 2.63-1.46 3.54z" fill="#f0d0b4"/></g><g><circle cx="16" cy="44" fill="#69d6f4" r="10"/></g><g><path d="m55 52c1.66 0 3 1.34 3 3 0 .83-.34 1.58-.88 2.12s-1.29.88-2.12.88h-10c-1.66 0-3-1.34-3-3 0-.83.34-1.58.88-2.12s1.29-.88 2.12-.88z" fill="#b4dd7f"/></g><g><path d="m55 42c1.66 0 3 1.34 3 3 0 .83-.34 1.58-.88 2.12s-1.29.88-2.12.88h-10c-1.66 0-3-1.34-3-3 0-.83.34-1.58.88-2.12s1.29-.88 2.12-.88z" fill="#b4dd7f"/></g><g><path d="m48 6.28v9.77c0 6.4-2.58 10.88-5.67 13.95-4.6 4.57-10.33 6-10.33 6s-5.73-1.43-10.33-6c-3.09-3.07-5.67-7.55-5.67-13.95v-9.77c9 3.72 16-4.28 16-4.28s7 8 16 4.28z" fill="#aab2bd"/></g><g><path d="m44 10.92v5.08c0 12-12 15.92-12 15.92s-12-3.92-12-15.92c0-3 0-5.08 0-5.08 7 1.08 12-3.92 12-3.92s5 5 12 3.92z" fill="#fcd770"/></g></g><g><path d="m31.689 32.872.311.101.311-.102c.127-.041 12.689-4.291 12.689-16.871v-6.245l-1.152.178c-6.391.987-11.095-3.595-11.142-3.641l-.708-.703-.704.705c-.047.046-4.715 4.626-11.141 3.64l-1.153-.179v6.245c0 12.58 12.563 16.83 12.689 16.872zm-10.689-20.833c5.372.389 9.426-2.407 11-3.703 1.574 1.296 5.64 4.089 11 3.703v3.961c0 10.193-9.128 14.154-10.996 14.858-1.81-.701-11.004-4.758-11.004-14.858z"/><path d="m39.707 16.628-1.414-1.414-8.293 8.293-3.293-3.293-1.414 1.414 4.707 4.707z"/><path d="m57 19h-6v10h-6.46c2.539-3.113 4.46-7.324 4.46-12.948v-11.27l-1.382.571c-8.214 3.399-14.599-3.709-14.867-4.013l-.752-.853-.75.853c-.268.304-6.656 7.411-14.866 4.013l-1.383-.571v11.27c0 5.624 1.921 9.835 4.46 12.948h-6.46v-10h-6c-3.309 0-6 2.691-6 6v32c0 3.309 2.691 6 6 6h50c3.309 0 6-2.691 6-6v-32c0-3.309-2.691-6-6-6zm-4 2h4c2.206 0 4 1.794 4 4s-1.794 4-4 4h-4zm-36-13.306c7.178 2.143 12.993-2.41 15-4.282 2.006 1.873 7.82 6.43 15 4.281v8.358c0 14.083-12.958 18.331-14.996 18.911-1.939-.572-15.004-4.959-15.004-18.91zm-10 13.306h4v8h-4c-2.206 0-4-1.794-4-4s1.794-4 4-4zm50 40h-50c-2.206 0-4-1.794-4-4v-27.54c1.063.954 2.462 1.54 4 1.54h14.322c4.708 4.467 10.338 5.946 10.435 5.97l.243.061.243-.061c.097-.024 5.727-1.503 10.435-5.97h14.322c1.538 0 2.937-.586 4-1.54v27.54c0 2.206-1.794 4-4 4z"/><path d="m11 57h2v2h-2z"/><path d="m15 57h2v2h-2z"/><path d="m19 57h2v2h-2z"/><path d="m23 57h2v2h-2z"/><path d="m7 57h2v2h-2z"/><path d="m55 51h-10c-2.206 0-4 1.794-4 4s1.794 4 4 4h10c2.206 0 4-1.794 4-4s-1.794-4-4-4zm0 6h-10c-1.103 0-2-.897-2-2s.897-2 2-2h10c1.103 0 2 .897 2 2s-.897 2-2 2z"/><path d="m55 41h-10c-2.206 0-4 1.794-4 4s1.794 4 4 4h10c2.206 0 4-1.794 4-4s-1.794-4-4-4zm0 6h-10c-1.103 0-2-.897-2-2s.897-2 2-2h10c1.103 0 2 .897 2 2s-.897 2-2 2z"/><path d="m41 37h18v2h-18z"/><path d="m57 33h2v2h-2z"/><path d="m53 33h2v2h-2z"/><path d="m49 33h2v2h-2z"/><path d="m45 33h2v2h-2z"/><path d="m41 33h2v2h-2z"/><path d="m26.279 47.882c.459-1.209.721-2.514.721-3.882 0-6.065-4.935-11-11-11s-11 4.935-11 11 4.935 11 11 11c3.869 0 7.271-2.013 9.233-5.041l3.219 5.041h8.548v-2h-7.452zm-12.895-.882c-.234-.932-.384-1.936-.384-3s.15-2.068.384-3h5.228c.237.932.388 1.936.388 3s-.151 2.068-.387 3zm4.556 2c-.625 1.487-1.393 2.662-1.95 3.406-.554-.745-1.316-1.919-1.937-3.406zm-10.94-5c0-1.053.191-2.06.525-3h3.804c-.202.94-.329 1.941-.329 3s.127 2.06.329 3h-3.804c-.334-.94-.525-1.947-.525-3zm7.053-5c.62-1.487 1.383-2.661 1.937-3.406.558.744 1.325 1.918 1.95 3.406zm6.616 2h3.806c.334.94.525 1.947.525 3s-.191 2.06-.525 3h-3.806c.203-.94.331-1.941.331-3s-.128-2.06-.331-3zm2.809-2h-3.382c-.542-1.501-1.24-2.759-1.868-3.709 2.172.556 4.033 1.895 5.25 3.709zm-9.727-3.704c-.623.95-1.316 2.205-1.853 3.704h-3.376c1.213-1.808 3.066-3.144 5.229-3.704zm-5.229 13.704h3.376c.537 1.499 1.23 2.755 1.853 3.704-2.163-.56-4.016-1.896-5.229-3.704zm9.706 3.709c.628-.95 1.327-2.208 1.868-3.709h3.382c-1.217 1.814-3.078 3.153-5.25 3.709z"/><path d="m31 49h2v2h-2z"/><path d="m35 49h2v2h-2z"/></g></g></svg>

<svg xmlns="http://www.w3.org/2000/svg" xmlns:xlink="http://www.w3.org/1999/xlink" height="512" viewBox="0 0 64 64" width="512" xmlns:v="https://vecta.io/nano"><path d="M12 20v10H7c-2.76 0-5-2.24-5-5a5.02 5.02 0 0 1 1.46-3.54A5.02 5.02 0 0 1 7 20zm45 0c2.76 0 5 2.24 5 5a5.02 5.02 0 0 1-5 5h-5V20z" fill="#e6e9ed"/><path d="M60.54 28.54A5.02 5.02 0 0 1 57 30H7c-2.76 0-5-2.24-5-5v32c0 2.76 2.24 5 5 5h50c2.76 0 5-2.24 5-5V25a5.02 5.02 0 0 1-1.46 3.54z" fill="#f0d0b4"/><circle cx="16" cy="44" fill="#69d6f4" r="10"/><path d="M55 52c1.66 0 3 1.34 3 3 0 .83-.34 1.58-.88 2.12S55.83 58 55 58H45c-1.66 0-3-1.34-3-3 0-.83.34-1.58.88-2.12S44.17 52 45 52zm0-10c1.66 0 3 1.34 3 3 0 .83-.34 1.58-.88 2.12S55.83 48 55 48H45c-1.66 0-3-1.34-3-3 0-.83.34-1.58.88-2.12S44.17 42 45 42z" fill="#b4dd7f"/><path d="M48 6.28v9.77c0 6.4-2.58 10.88-5.67 13.95C37.73 34.57 32 36 32 36s-5.73-1.43-10.33-6C18.58 26.93 16 22.45 16 16.05V6.28C25 10 32 2 32 2s7 8 16 4.28z" fill="#aab2bd"/><path d="M44 10.92V16c0 12-12 15.92-12 15.92S20 28 20 16v-5.08C27 12 32 7 32 7s5 5 12 3.92z" fill="#fcd770"/><path d="M31.689 32.872l.311.101.311-.102C32.438 32.83 45 28.58 45 16V9.755l-1.152.178c-6.391.987-11.095-3.595-11.142-3.641l-.708-.703-.704.705c-.047.046-4.715 4.626-11.141 3.64L19 9.755V16c0 12.58 12.563 16.83 12.689 16.872zM21 12.039c5.372.389 9.426-2.407 11-3.703 1.574 1.296 5.64 4.089 11 3.703V16c0 10.193-9.128 14.154-10.996 14.858C30.194 30.157 21 26.1 21 16zm18.707 4.589l-1.414-1.414L30 23.507l-3.293-3.293-1.414 1.414L30 26.335zM57 19h-6v10h-6.46C47.079 25.887 49 21.676 49 16.052V4.782l-1.382.571C39.404 8.752 33.019 1.644 32.751 1.34l-.752-.853-.75.853c-.268.304-6.656 7.411-14.866 4.013L15 4.782v11.27c0 5.624 1.921 9.835 4.46 12.948H13V19H7a6.01 6.01 0 0 0-6 6v32a6.01 6.01 0 0 0 6 6h50a6.01 6.01 0 0 0 6-6V25a6.01 6.01 0 0 0-6-6zm-4 2h4c2.206 0 4 1.794 4 4s-1.794 4-4 4h-4zM17 7.694c7.178 2.143 12.993-2.41 15-4.282 2.006 1.873 7.82 6.43 15 4.281v8.358c0 14.083-12.958 18.331-14.996 18.911C30.065 34.39 17 30.003 17 16.052zM7 21h4v8H7c-2.206 0-4-1.794-4-4s1.794-4 4-4zm50 40H7c-2.206 0-4-1.794-4-4V29.46A5.97 5.97 0 0 0 7 31h14.322c4.708 4.467 10.338 5.946 10.435 5.97l.243.061.243-.061c.097-.024 5.727-1.503 10.435-5.97H57a5.97 5.97 0 0 0 4-1.54V57c0 2.206-1.794 4-4 4zm-46-4h2v2h-2zm4 0h2v2h-2zm4 0h2v2h-2zm4 0h2v2h-2zM7 57h2v2H7z"/><use xlink:href="#B"/><use xlink:href="#B" y="-10"/><path d="M41 37h18v2H41zm16-4h2v2h-2zm-4 0h2v2h-2zm-4 0h2v2h-2zm-4 0h2v2h-2zm-4 0h2v2h-2zM26.279 47.882C26.738 46.673 27 45.368 27 44c0-6.065-4.935-11-11-11S5 37.935 5 44s4.935 11 11 11c3.869 0 7.271-2.013 9.233-5.041L28.452 55H37v-2h-7.452zM13.384 47A12.29 12.29 0 0 1 13 44a12.29 12.29 0 0 1 .384-3h5.228c.237.932.388 1.936.388 3s-.151 2.068-.387 3zm4.556 2c-.625 1.487-1.393 2.662-1.95 3.406-.554-.745-1.316-1.919-1.937-3.406zM7 44c0-1.053.191-2.06.525-3h3.804c-.202.94-.329 1.941-.329 3s.127 2.06.329 3H7.525C7.191 46.06 7 45.053 7 44zm7.053-5a16.32 16.32 0 0 1 1.937-3.406c.558.744 1.325 1.918 1.95 3.406zm6.616 2h3.806c.334.94.525 1.947.525 3s-.191 2.06-.525 3h-3.806c.203-.94.331-1.941.331-3s-.128-2.06-.331-3zm2.809-2h-3.382a17.65 17.65 0 0 0-1.868-3.709A9.02 9.02 0 0 1 23.478 39zm-9.727-3.704A17.67 17.67 0 0 0 11.898 39H8.522c1.213-1.808 3.066-3.144 5.229-3.704zM8.522 49h3.376c.537 1.499 1.23 2.755 1.853 3.704-2.163-.56-4.016-1.896-5.229-3.704zm9.706 3.709c.628-.95 1.327-2.208 1.868-3.709h3.382a9.02 9.02 0 0 1-5.25 3.709zM31 49h2v2h-2zm4 0h2v2h-2z"/><defs ><path id="B" d="M55 51H45c-2.206 0-4 1.794-4 4s1.794 4 4 4h10c2.206 0 4-1.794 4-4s-1.794-4-4-4zm0 6H45c-1.103 0-2-.897-2-2s.897-2 2-2h10c1.103 0 2 .897 2 2s-.897 2-2 2z"/></defs></svg>
